X:233
T:Epping Forest
C:John Playford 1670
S:Colin Hume's website,  colinhume.com  - chords can also be printed below the stave.
Q:3/8=120
M:6/8
L:1/8
%%MIDI ratio 3 1
K:Gdor
P:A
|:z | "Bb"d2d "F"c>BA | "Gm"B>AG "D"^F2e | "Bb"f>ed "C"c2B | "F"A3- A2d |\
"Dm"f>ed "Am"c2A | "Gm"B>AG "D"^F2D | "C"E>^FG "D"G2F | "Gm"G3- G2 :|
P:B
|: B/c/ | "Bb"d3 "F"c3 | "Gm"B3- B2d/e/ | "Dm"f3 "A"e3 | "D"d3- d2 :|
P:C
|: d | "Bb"d>ed "F"c>BA | "Gm"B>AG "D"^F2D | "C"E>^FG "D"G2F | "Gm"G3- G2 :|

